!!!!SEGMENT: pl-kk--kk-i-395--001-011_raszek-waclaw--missa-toni-c-pleni-sunt.krn
!!!cenid: 17xx:2547
!!!COM: Raszek, Wacław
!!!COM-rismID: pe30020314
!!!CDT: <1848->1848
!!!CNT:
!!!OPR: Missa Toni C
!!!OTL: Pleni sunt
!!!OMV: 011
!!!PDT: 1789
!!!AGN: Sacred; Mass
!!!YEC: Copyright 2022 Narodowy Instytut Fryderyka Chopina (https://polishscores.org)
!!!YEM: License CC-BY-4.0 (https://creativecommons.org/licenses/by/4.0)
!!!SMS-siglum: PL-Kk
!!!SMS-shelfmark: Kk.I.395
!!!SMS-variant: PL-Kk.I.395:vl1:28, vl2:37
!!!SMS-altvar: PL-Kk.I.395:vl1:37, vl2:53
!!!SMS-shelfwork: 001-011 M
!!!NIFC-rismSourceID: 1001142055
!!!NIFC-rismChildID: 1001142055
!!!NIFC-islandoraID:
!!!URL-pdf-islandora: https://repozytorium.nifc.pl/islandora/object/pl-kk%3A7416/datastream/PDF/view
!!!URL-scan: https://polish.musicsources.pl/pl/lokalizacje/galeria/rekopisy/6005-missa/1 @EN{Scan on Polish Music Sources Website} @PL{Skany w portalu Dziedzictwo Muzyki Polskiej w otwartym dostępie}
!!!IIIF:
!!!ONB-nifc: UWAGA: Części Mszy: 1. Kyrie, 2. Gloria, 3. Laudamus, 4. Qui tollis, 5. Quoniam, 6. Cum Sancto Spiritu, 7, Credo, 8. Et incarnatus, 9. Et resurrexit, 10. Sanctus, 11. Pleni sunt, 12. Benedictus, 13. Agnus Dei, 14. Dona nobis. Uwaga: Vn na podstawie Violino 1mo s. 22-30 i Violino 2do s. 41-47. Drugie odpisy: Violino Primo s. 31-40 s. i Secondo s. 48-55. Proszę uzupełnić pola SMS wg wzoru w wątku #53.
!!!OMD: Allegro
!!!AIN: 1 alto 1 bass 1 canto 2 clrno 2 cor 2 oboe 1 organ 1 tenor 1 timpa 1 viola 1 viole 2 violn
!!!key: C
**kern	**fba	**kern	**dynam	**kern	**dynam	**kern	**dynam	**kern	**dynam	**kern	**text	**dynam	**kern	**text	**dynam	**kern	**text	**kern	**text	**kern	**kern	**kern	**kern	**dynam	**kern	**dynam	**kern	**dynam	**kern	**dynam
*part16	*part16	*part15	*part15	*part14	*part14	*part13	*part13	*part12	*part12	*part11	*part11	*part11	*part10	*part10	*part10	*part9	*part9	*part8	*part8	*part7	*part6	*part5	*part4	*part4	*part3	*part3	*part2	*part2	*part1	*part1
*staff16	*staff16	*staff15	*	*staff14	*	*staff13	*	*staff12	*	*staff11	*staff11	*	*staff10	*staff10	*	*staff9	*staff9	*staff8	*staff8	*staff7	*staff6	*staff5	*staff4	*	*staff3	*	*staff2	*	*staff1	*
*I"Organo	*	*I"Violone	*	*I"Viola di Alto	*	*I"Violino 2do	*	*I"Violino 1mo	*	*I"Basso	*	*	*I"Tenore	*	*	*I"Alto	*	*I"Canto	*	*I"Tympano in C	*I"Clarino 2do in C	*I"Clarino 1mo in C	*I"Cornu 2do in C	*	*I"Cornu 1mo in C	*	*I"Oboe 2do	*	*I"Oboe 1mo	*
*I'org	*	*I'vlne	*	*I'a-vla	*	*I'vl II	*	*I'vl I	*	*I'B	*	*	*I'T	*	*	*I'A	*	*I'S	*	*I'timp	*I'clno II	*I'clno I	*I'cor II in C	*	*I'cor I in C	*	*I'ob II	*	*I'ob I	*
*Iorgan	*	*Iviole	*	*Iviola	*	*Ivioln	*	*Ivioln	*	*Ibass	*	*	*Itenor	*	*	*Ialto	*	*Icanto	*	*Itimpa	*Iclrno	*Iclrno	*Icor	*	*Icor	*	*Ioboe	*	*Ioboe	*
*ICklav	*	*ICstr	*	*ICstr	*	*ICstr	*	*ICstr	*	*ICvox	*	*	*ICvox	*	*	*ICvox	*	*ICvox	*	*ICidio	*ICbras	*ICbras	*ICbras	*	*ICbras	*	*ICww	*	*ICww	*
*clefF4	*	*clefF4	*	*clefC3	*	*clefG2	*	*clefG2	*	*clefF4	*	*	*clefC4	*	*	*clefC3	*	*clefC1	*	*clefF4	*clefG2	*clefG2	*clefG2	*	*clefG2	*	*clefG2	*	*clefG2	*
*	*	*	*	*	*	*	*	*	*	*	*	*	*	*	*	*	*	*	*	*	*	*	*Trd0c0	*	*Trd0c0	*	*	*	*	*
*k[]	*	*k[]	*	*k[]	*	*k[]	*	*k[]	*	*k[]	*	*	*k[]	*	*	*k[]	*	*k[]	*	*k[]	*k[]	*k[]	*k[]	*	*k[]	*	*k[]	*	*k[]	*
*C:	*	*C:	*	*C:	*	*C:	*	*C:	*	*C:	*	*	*C:	*	*	*C:	*	*C:	*	*C:	*C:	*C:	*C:	*	*C:	*	*C:	*	*C:	*
*M4/4	*	*M4/4	*	*M4/4	*	*M4/4	*	*M4/4	*	*M4/4	*	*	*M4/4	*	*	*M4/4	*	*M4/4	*	*M4/4	*M4/4	*M4/4	*M4/4	*	*M4/4	*	*M4/4	*	*M4/4	*
*met(c)	*	*met(c)	*	*met(c)	*	*met(c)	*	*met(c)	*	*met(c)	*	*	*met(c)	*	*	*met(c)	*	*met(c)	*	*met(c)	*met(c)	*met(c)	*met(c)	*	*met(c)	*	*met(c)	*	*met(c)	*
=1	=1	=1	=1	=1	=1	=1	=1	=1	=1	=1	=1	=1	=1	=1	=1	=1	=1	=1	=1	=1	=1	=1	=1	=1	=1	=1	=1	=1	=1	=1
*	*	*	*	*	*	*	*	*	*	*	*	*	*2\right	*	*	*2\right	*	*2\right	*	*	*	*	*	*	*	*	*	*	*	*
!!LO:TX:a:t=P:problem=all\right
!LO:TX:a:t=Tutti	!	!	!	!	!	!	!	!	!	!	!	!	!	!	!	!LO:TX:a:t=T.	!	!LO:TX:a:t=Tutti	!	!	!	!	!	!	!	!	!	!	!	!
!LO:TX:a:t=All(egr)o	!	!LO:TX:a:t=All(egr)o	!LO:DY:a	!LO:TX:a:t=All(egr)o	!LO:DY:a:rj	!	!LO:DY:a:rj	!LO:TX:a:t=All(egr)o	!LO:DY:a	!LO:TX:a:t=All(egr)o	!	!LO:DY:a:t=ff&colon;	!LO:TX:a:t=All(egr)o	!	!LO:DY:a	!LO:TX:a:t=All(egr)o	!	!LO:TX:a:t=All(egro)	!	!LO:TX:a:t=All(egr)o	!LO:TX:a:t=All(egr)o	!LO:TX:a:t=All(egr)o	!LO:TX:a:t=All(egr)o	!LO:DY:a:rj	!	!LO:DY:a:rj	!LO:TX:a:t=All(egr)o	!LO:DY:a	!LO:TX:a:t=All(egr)o	!LO:DY:a
4C/	.	4C/	ff	4c\	ff	4G/ 4e	ff	4e\ 4cc	ff	2C/	Ple-	ff	2e\	Ple-	ff	2g\	Ple-	2cc\	Ple-	4Ra/	4e/	4cc\	4e/	ff	4cc\	ff	4e/	ff	4cc\	ff
4E\	.	4E\	.	4e\	.	16e/LL	.	16cc\LL	.	.	.	.	.	.	.	.	.	.	.	8Ra/L	8e/L	8cc\L	8e/L	.	8cc\L	.	4e/	.	4cc\	.
.	.	.	.	.	.	16d/	.	16b\	.	.	.	.	.	.	.	.	.	.	.	.	.	.	.	.	.	.	.	.	.	.
.	.	.	.	.	.	16e/	.	16cc\	.	.	.	.	.	.	.	.	.	.	.	8Ra/J	8e/J	8cc\J	8e/J	.	8cc\J	.	.	.	.	.
.	.	.	.	.	.	16f/JJ	.	16dd\JJ	.	.	.	.	.	.	.	.	.	.	.	.	.	.	.	.	.	.	.	.	.	.
*	*	*	*	*	*	*	*	*2\right	*	*	*	*	*	*	*	*	*	*	*	*	*	*	*	*	*	*	*	*	*	*
*	*	*	*	*	*	*tremolo	*	*tremolo	*	*	*	*	*	*	*	*	*	*	*	*	*	*	*	*	*	*	*	*	*	*
4G\	.	4G\	.	4g\	.	8e/L	.	8cc\L	.	4c\	-ni	.	4e\	-ni	.	4g\	-ni	4cc\	-ni	4Ra/	4e/	4cc\	4e/	.	4cc\	.	4e/	.	4cc\	.
.	.	.	.	.	.	8e/	.	8cc\	.	.	.	.	.	.	.	.	.	.	.	.	.	.	.	.	.	.	.	.	.	.
4c\	.	4c\	.	4cc\	.	8e/	.	8cc\	.	4c\	sunt	.	4e\	sunt	.	4g\	sunt	4cc\	sunt	4Ra/	4e/	4cc\	4e/	.	4cc\	.	4e/	.	4cc\	.
.	.	.	.	.	.	8e/J	.	8cc\J	.	.	.	.	.	.	.	.	.	.	.	.	.	.	.	.	.	.	.	.	.	.
*	*	*	*	*	*	*Xtremolo	*	*Xtremolo	*	*	*	*	*	*	*	*	*	*	*	*	*	*	*	*	*	*	*	*	*	*
=2	=2	=2	=2	=2	=2	=2	=2	=2	=2	=2	=2	=2	=2	=2	=2	=2	=2	=2	=2	=2	=2	=2	=2	=2	=2	=2	=2	=2	=2	=2
.	.	.	.	.	.	8qg/	.	8qee/	.	.	.	.	.	.	.	.	.	.	.	.	.	.	.	.	.	.	.	.	.	.
4G\	7	4G\	.	4g\	.	8f/L	.	8dd\L	.	4G\	Cae-	.	4f\	Cae-	.	4g\	Cae-	4dd\	Cae-	4Re/	4g/	4dd\	4g/	.	4dd\	.	4f/	.	4dd\	.
.	.	.	.	.	.	16e/L	.	16cc\L	.	.	.	.	.	.	.	.	.	.	.	.	.	.	.	.	.	.	.	.	.	.
.	.	.	.	.	.	16f/JJ	.	16dd\JJ	.	.	.	.	.	.	.	.	.	.	.	.	.	.	.	.	.	.	.	.	.	.
4C/	.	4C/	.	4e\	.	4e/	.	8cc\L	.	4C/	-li	.	4e\	-li	.	4g\	-li	4cc\	-li	4Ra/	4e/	4cc\	4e/	.	4cc\	.	4e/	.	4cc\	.
.	.	.	.	.	.	.	.	8g\J	.	.	.	.	.	.	.	.	.	.	.	.	.	.	.	.	.	.	.	.	.	.
2r	.	2r	.	2r	.	2r	.	8cc\L	.	2r	.	.	2r	.	.	2r	.	2r	.	2r	2r	2r	2r	.	2r	.	2r	.	2r	.
.	.	.	.	.	.	.	.	8g\	.	.	.	.	.	.	.	.	.	.	.	.	.	.	.	.	.	.	.	.	.	.
.	.	.	.	.	.	.	.	8cc\	.	.	.	.	.	.	.	.	.	.	.	.	.	.	.	.	.	.	.	.	.	.
.	.	.	.	.	.	.	.	8dd\J	.	.	.	.	.	.	.	.	.	.	.	.	.	.	.	.	.	.	.	.	.	.
=3	=3	=3	=3	=3	=3	=3	=3	=3	=3	=3	=3	=3	=3	=3	=3	=3	=3	=3	=3	=3	=3	=3	=3	=3	=3	=3	=3	=3	=3	=3
4C/	.	4C/	.	8c\L	.	4G/ 4e 4cc	.	4ee\	.	(4C\	Cae-	.	2c\	Cae-	.	2g\	Cae-	2ee\	Cae-	4Ra/	4e/	4cc\	4cc\	.	4ee\	.	4cc\	.	4ee\	.
.	.	.	.	8c\	.	.	.	.	.	.	.	.	.	.	.	.	.	.	.	.	.	.	.	.	.	.	.	.	.	.
4E\	.	4E\	.	8e\	.	16cc\LL	.	16ee\LL	.	4E\)	.	.	.	.	.	.	.	.	.	8Ra/L	8e/L	8cc\L	8cc\L	.	8ee\L	.	4cc\	.	4ee\	.
.	.	.	.	.	.	16b\	.	16dd\	.	.	.	.	.	.	.	.	.	.	.	.	.	.	.	.	.	.	.	.	.	.
.	.	.	.	8e\J	.	16cc\	.	16ee\	.	.	.	.	.	.	.	.	.	.	.	8Ra/J	8e/J	8cc\J	8cc\J	.	8ee\J	.	.	.	.	.
.	.	.	.	.	.	16dd\JJ	.	16ff\JJ	.	.	.	.	.	.	.	.	.	.	.	.	.	.	.	.	.	.	.	.	.	.
*	*	*	*	*	*	*2\right	*	*	*	*	*	*	*	*	*	*	*	*	*	*	*	*	*	*	*	*	*	*	*	*
*	*	*	*	*	*	*tremolo	*	*tremolo	*	*	*	*	*	*	*	*	*	*	*	*	*	*	*	*	*	*	*	*	*	*
4G\	.	4G\	.	8g\L	.	8cc\L	.	8ee\L	.	(4G\	-li	.	4c\	-li	.	4g\	-li	4ee\	-li	4Ra/	4e/	4cc\	4cc\	.	4ee\	.	4cc\	.	4ee\	.
.	.	.	.	8g\	.	8cc\	.	8ee\	.	.	.	.	.	.	.	.	.	.	.	.	.	.	.	.	.	.	.	.	.	.
4c\	.	4c\	.	8cc\	.	8cc\	.	8ee\	.	4c\)	et	.	4c\	et	.	4g\	et	4ee\	et	4Ra/	4e/	4cc\	4cc\	.	4ee\	.	4cc\	.	4ee\	.
.	.	.	.	8cc\J	.	8cc\J	.	8ee\J	.	.	.	.	.	.	.	.	.	.	.	.	.	.	.	.	.	.	.	.	.	.
*	*	*	*	*	*	*Xtremolo	*	*Xtremolo	*	*	*	*	*	*	*	*	*	*	*	*	*	*	*	*	*	*	*	*	*	*
=4	=4	=4	=4	=4	=4	=4	=4	=4	=4	=4	=4	=4	=4	=4	=4	=4	=4	=4	=4	=4	=4	=4	=4	=4	=4	=4	=4	=4	=4	=4
.	.	.	.	.	.	8qee/	.	8qgg/	.	.	.	.	.	.	.	.	.	.	.	.	.	.	.	.	.	.	.	.	.	.
4G\	7	4G\	.	4g\	.	8dd\L	.	8ff\L	.	4G\	ter-	.	4d\	ter-	.	4g\	ter-	4ff\	ter-	4Re/	4g/	4dd\	4g/	.	4dd\	.	4dd\	.	4ff\	.
.	.	.	.	.	.	16cc\L	.	16ee\L	.	.	.	.	.	.	.	.	.	.	.	.	.	.	.	.	.	.	.	.	.	.
.	.	.	.	.	.	16dd\JJ	.	16ff\JJ	.	.	.	.	.	.	.	.	.	.	.	.	.	.	.	.	.	.	.	.	.	.
4C/	.	4C/	.	4c\	.	4cc\	.	8ee\L	.	4C/	-ra	.	4c\	-ra	.	4g\	-ra	4ee\	-ra	4Ra/	4e/	4cc\	4cc\	.	4ee\	.	4cc\	.	4ee\	.
.	.	.	.	.	.	.	.	8cc\J	.	.	.	.	.	.	.	.	.	.	.	.	.	.	.	.	.	.	.	.	.	.
2r	.	2r	.	2r	.	2r	.	8ee\L	.	2r	.	.	2r	.	.	2r	.	2r	.	2r	2r	2r	2r	.	2r	.	2r	.	2r	.
.	.	.	.	.	.	.	.	8cc\	.	.	.	.	.	.	.	.	.	.	.	.	.	.	.	.	.	.	.	.	.	.
.	.	.	.	.	.	.	.	8ee\	.	.	.	.	.	.	.	.	.	.	.	.	.	.	.	.	.	.	.	.	.	.
.	.	.	.	.	.	.	.	8ff\J	.	.	.	.	.	.	.	.	.	.	.	.	.	.	.	.	.	.	.	.	.	.
=5	=5	=5	=5	=5	=5	=5	=5	=5	=5	=5	=5	=5	=5	=5	=5	=5	=5	=5	=5	=5	=5	=5	=5	=5	=5	=5	=5	=5	=5	=5
*	*	*	*	*	*	*	*	*tremolo	*	*2\right	*	*	*	*	*	*	*	*	*	*	*	*	*	*	*	*	*	*	*	*
8c\L	5 3	8c\L	.	8c\L	.	8ee\L	.	16gg\LL	.	2c\	Ple-	.	2c\	Ple-	.	2g\	Glo-	2ee\	glo-	4Ra/	4g/	4g/	4cc\	.	4ee\	.	8ee\L	.	4gg\	.
.	.	.	.	.	.	.	.	16gg\	.	.	.	.	.	.	.	.	.	.	.	.	.	.	.	.	.	.	.	.	.	.
8B\	3	8B\	.	8B\	.	8dd\	.	16gg\	.	.	.	.	.	.	.	.	.	.	.	.	.	.	.	.	.	.	8dd\	.	.	.
.	.	.	.	.	.	.	.	16gg\	.	.	.	.	.	.	.	.	.	.	.	.	.	.	.	.	.	.	.	.	.	.
8c\	3	8c\	.	8c\	.	8ee\	.	16gg\	.	.	.	.	.	.	.	.	.	.	.	4r	8g/L	8g/L	4r	.	4r	.	8ee\	.	8gg\L	.
.	.	.	.	.	.	.	.	16gg\	.	.	.	.	.	.	.	.	.	.	.	.	.	.	.	.	.	.	.	.	.	.
8d\J	3	8d\J	.	8d\J	.	8ff\J	.	16gg\	.	.	.	.	.	.	.	.	.	.	.	.	8g/J	8g/J	.	.	.	.	8ff\J	.	8gg\J	.
.	.	.	.	.	.	.	.	16gg\JJ	.	.	.	.	.	.	.	.	.	.	.	.	.	.	.	.	.	.	.	.	.	.
8e\L	3	8e\L	.	8c\L	.	8gg\L	.	16gg\LL	.	4c\	-ni	.	4c\	-ni	.	4g\	-ri-	4ee\	-ri-	4Ra/	4g/	4g/	4cc\	.	4ee\	.	8gg\L	.	4gg\	.
.	.	.	.	.	.	.	.	16gg\	.	.	.	.	.	.	.	.	.	.	.	.	.	.	.	.	.	.	.	.	.	.
8c\	.	8c\	.	8e\	.	8ee\	.	16gg\	.	.	.	.	.	.	.	.	.	.	.	.	.	.	.	.	.	.	8ee\	.	.	.
.	.	.	.	.	.	.	.	16gg\	.	.	.	.	.	.	.	.	.	.	.	.	.	.	.	.	.	.	.	.	.	.
8e\	.	8e\	.	8c\	.	8gg\	.	16gg\	.	4c\	sunt	.	4c\	sunt	.	4g\	-a	4ee\	-a	4Ra/	4g/	4g/	4cc\	.	4ee\	.	8gg\	.	4gg\	.
.	.	.	.	.	.	.	.	16gg\	.	.	.	.	.	.	.	.	.	.	.	.	.	.	.	.	.	.	.	.	.	.
8c\J	.	8c\J	.	8e\J	.	8ee\J	.	16gg\	.	.	.	.	.	.	.	.	.	.	.	.	.	.	.	.	.	.	8ee\J	.	.	.
.	.	.	.	.	.	.	.	16gg\JJ	.	.	.	.	.	.	.	.	.	.	.	.	.	.	.	.	.	.	.	.	.	.
=6	=6	=6	=6	=6	=6	=6	=6	=6	=6	=6	=6	=6	=6	=6	=6	=6	=6	=6	=6	=6	=6	=6	=6	=6	=6	=6	=6	=6	=6	=6
*	*	*	*	*	*	*	*	*	*	*	*	*	*	*	*	*	*ij	*	*ij	*	*	*	*	*	*	*	*	*	*	*
8B\L	6	8B\L	.	8B/L	.	8dd\L	.	16gg\LL	.	2G\	Cae-	.	2B\	Cae-	.	2g\	Glo-	2dd\	glo-	4Re/	1g	1g	4g/	.	4dd\	.	8dd\L	.	1gg	.
.	.	.	.	.	.	.	.	16gg\	.	.	.	.	.	.	.	.	.	.	.	.	.	.	.	.	.	.	.	.	.	.
8A\	.	8A\	.	8A/	.	8cc\	.	16gg\	.	.	.	.	.	.	.	.	.	.	.	.	.	.	.	.	.	.	8cc\	.	.	.
.	.	.	.	.	.	.	.	16gg\	.	.	.	.	.	.	.	.	.	.	.	.	.	.	.	.	.	.	.	.	.	.
8B\	.	8B\	.	8B/	.	8dd\	.	16gg\	.	.	.	.	.	.	.	.	.	.	.	4r	.	.	4r	.	4r	.	8dd\	.	.	.
.	.	.	.	.	.	.	.	16gg\	.	.	.	.	.	.	.	.	.	.	.	.	.	.	.	.	.	.	.	.	.	.
8c\J	.	8c\J	.	8c/J	.	8ee\J	.	16gg\	.	.	.	.	.	.	.	.	.	.	.	.	.	.	.	.	.	.	8ee\J	.	.	.
.	.	.	.	.	.	.	.	16gg\JJ	.	.	.	.	.	.	.	.	.	.	.	.	.	.	.	.	.	.	.	.	.	.
8d\L	.	8d\L	.	8B/L	.	8ff\L	.	16gg\LL	.	4G\	-li	.	4B\	-li	.	4g\	-ri-	4dd\	-ri-	4Re/	.	.	4g/	.	4dd\	.	8ff\L	.	.	.
.	.	.	.	.	.	.	.	16gg\	.	.	.	.	.	.	.	.	.	.	.	.	.	.	.	.	.	.	.	.	.	.
8B\	.	8B\	.	8d/	.	8dd\	.	16gg\	.	.	.	.	.	.	.	.	.	.	.	.	.	.	.	.	.	.	8dd\	.	.	.
.	.	.	.	.	.	.	.	16gg\	.	.	.	.	.	.	.	.	.	.	.	.	.	.	.	.	.	.	.	.	.	.
8d\	.	8d\	.	8B/	.	8ff\	.	16gg\	.	4G\	et	.	4B\	et	.	4g\	-a	4dd\	-a	4Re/	.	.	4g/	.	4dd\	.	8ff\	.	.	.
*	*	*	*	*	*	*	*	*	*	*	*	*	*	*	*	*	*Xij	*	*Xij	*	*	*	*	*	*	*	*	*	*	*
.	.	.	.	.	.	.	.	16gg\	.	.	.	.	.	.	.	.	.	.	.	.	.	.	.	.	.	.	.	.	.	.
8B\J	.	8B\J	.	8d/J	.	8dd\J	.	16gg\	.	.	.	.	.	.	.	.	.	.	.	.	.	.	.	.	.	.	8dd\J	.	.	.
.	.	.	.	.	.	.	.	16gg\JJ	.	.	.	.	.	.	.	.	.	.	.	.	.	.	.	.	.	.	.	.	.	.
!	!	!	!	!LO:LB:g=original	!	!LO:LB:g=original	!	!	!	!	!	!	!	!	!	!	!	!LO:LB:g=original	!	!	!	!	!	!	!	!	!	!	!	!
=7	=7	=7	=7	=7	=7	=7	=7	=7	=7	=7	=7	=7	=7	=7	=7	=7	=7	=7	=7	=7	=7	=7	=7	=7	=7	=7	=7	=7	=7	=7
8c\L	.	8c\L	.	8c\L	.	8ee\L	.	16gg\LL	.	2c\	ter-	.	2c\	ter-	.	2g\	tu-	2ee\	tu-	4Ra/	4g/	4g/	4cc\	.	4ee\	.	4ee\	.	4gg\	.
.	.	.	.	.	.	.	.	16gg\	.	.	.	.	.	.	.	.	.	.	.	.	.	.	.	.	.	.	.	.	.	.
8B\	.	8B\	.	8B\	.	8dd\	.	16gg\	.	.	.	.	.	.	.	.	.	.	.	.	.	.	.	.	.	.	.	.	.	.
.	.	.	.	.	.	.	.	16gg\	.	.	.	.	.	.	.	.	.	.	.	.	.	.	.	.	.	.	.	.	.	.
8c\	.	8c\	.	8c\	.	8ee\	.	16gg\	.	.	.	.	.	.	.	.	.	.	.	4r	4g/	4g/	4r	.	4r	.	4r	.	8gg\L	.
.	.	.	.	.	.	.	.	16gg\	.	.	.	.	.	.	.	.	.	.	.	.	.	.	.	.	.	.	.	.	.	.
8d\J	.	8d\J	.	8d\J	.	8ff\J	.	16gg\	.	.	.	.	.	.	.	.	.	.	.	.	.	.	.	.	.	.	.	.	8gg\J	.
.	.	.	.	.	.	.	.	16gg\JJ	.	.	.	.	.	.	.	.	.	.	.	.	.	.	.	.	.	.	.	.	.	.
!	!	!	!	!	!	!	!	!	!	!	!	!	!	!	!	!	!	!	!	!LO:LB:g=original	!	!	!	!	!	!	!	!	!	!
=-	=-	=-	=-	=-	=-	=-	=-	=-	=-	=-	=-	=-	=-	=-	=-	=-	=-	=-	=-	=-	=-	=-	=-	=-	=-	=-	=-	=-	=-	=-
8e\L	.	8e\L	.	8c\L	.	8gg\L	.	16gg\LL	.	2c\	-ra	.	2c\	-ra	.	2g\	-a	2ee\	-a	4Ra/	4g/	4g/	4cc\	.	4ee\	.	8gg\L	.	4gg\	.
.	.	.	.	.	.	.	.	16gg\	.	.	.	.	.	.	.	.	.	.	.	.	.	.	.	.	.	.	.	.	.	.
8c\	.	8c\	.	8e\	.	8ee\	.	16gg\	.	.	.	.	.	.	.	.	.	.	.	.	.	.	.	.	.	.	8ee\	.	.	.
.	.	.	.	.	.	.	.	16gg\	.	.	.	.	.	.	.	.	.	.	.	.	.	.	.	.	.	.	.	.	.	.
8e\	.	8e\	.	8c\	.	8gg\	.	16gg\	.	.	.	.	.	.	.	.	.	.	.	4Ra/	4g/	4g/	4cc\	.	4ee\	.	8gg\	.	4gg\	.
.	.	.	.	.	.	.	.	16gg\	.	.	.	.	.	.	.	.	.	.	.	.	.	.	.	.	.	.	.	.	.	.
8c\J	.	8c\J	.	8e\J	.	8ee\J	.	16gg\	.	.	.	.	.	.	.	.	.	.	.	.	.	.	.	.	.	.	8ee\J	.	.	.
.	.	.	.	.	.	.	.	16gg\JJ	.	.	.	.	.	.	.	.	.	.	.	.	.	.	.	.	.	.	.	.	.	.
!	!LO:LB:g=original	!LO:LB:g=original	!	!	!	!	!	!LO:LB:g=original	!	!LO:LB:g=original	!	!	!	!	!	!LO:LB:g=original	!	!	!	!	!	!	!	!	!	!	!	!	!	!
=8	=8	=8	=8	=8	=8	=8	=8	=8	=8	=8	=8	=8	=8	=8	=8	=8	=8	=8	=8	=8	=8	=8	=8	=8	=8	=8	=8	=8	=8	=8
8B\L	.	8B\L	.	8B/L	.	8dd\L	.	16gg\LL	.	2G\	glo-	.	2B\	Glo-	.	2g\	glo-	2dd\	Glo-	4Re/	1g	1g	4g/	.	4dd\	.	4dd\	.	1gg	.
.	.	.	.	.	.	.	.	16gg\	.	.	.	.	.	.	.	.	.	.	.	.	.	.	.	.	.	.	.	.	.	.
8A\	.	8A\	.	8A/	.	8cc\	.	16gg\	.	.	.	.	.	.	.	.	.	.	.	.	.	.	.	.	.	.	.	.	.	.
.	.	.	.	.	.	.	.	16gg\	.	.	.	.	.	.	.	.	.	.	.	.	.	.	.	.	.	.	.	.	.	.
8B\	.	8B\	.	8B/	.	8dd\	.	16gg\	.	.	.	.	.	.	.	.	.	.	.	4r	.	.	4r	.	4r	.	4r	.	.	.
.	.	.	.	.	.	.	.	16gg\	.	.	.	.	.	.	.	.	.	.	.	.	.	.	.	.	.	.	.	.	.	.
8c\J	.	8c\J	.	8c/J	.	8ee\J	.	16gg\	.	.	.	.	.	.	.	.	.	.	.	.	.	.	.	.	.	.	.	.	.	.
.	.	.	.	.	.	.	.	16gg\JJ	.	.	.	.	.	.	.	.	.	.	.	.	.	.	.	.	.	.	.	.	.	.
!	!	!	!	!	!	!	!	!	!	!	!	!	!	!	!	!	!	!	!	!	!	!	!	!	!	!	!LO:LB:g=original	!	!	!
=-	=-	=-	=-	=-	=-	=-	=-	=-	=-	=-	=-	=-	=-	=-	=-	=-	=-	=-	=-	=-	=-	=-	=-	=-	=-	=-	=-	=-	=-	=-
8d\L	.	8d\L	.	8B\L	.	8ff\L	.	16gg\LL	.	4G\	-ri-	.	4B\	-ri-	.	4g\	-ri-	4dd\	-ri-	4Re/	.	.	4g/	.	4dd\	.	8ff\L	.	.	.
.	.	.	.	.	.	.	.	16gg\	.	.	.	.	.	.	.	.	.	.	.	.	.	.	.	.	.	.	.	.	.	.
8B\	.	8B\	.	8d\	.	8dd\	.	16gg\	.	.	.	.	.	.	.	.	.	.	.	.	.	.	.	.	.	.	8dd\	.	.	.
.	.	.	.	.	.	.	.	16gg\	.	.	.	.	.	.	.	.	.	.	.	.	.	.	.	.	.	.	.	.	.	.
8d\	.	8d\	.	8B\	.	8ff\	.	16gg\	.	4G\	-a	.	4B\	-a	.	4g\	-a	4dd\	-a	4Re/	.	.	4g/	.	4dd\	.	8ff\	.	.	.
.	.	.	.	.	.	.	.	16gg\	.	.	.	.	.	.	.	.	.	.	.	.	.	.	.	.	.	.	.	.	.	.
8B\J	.	8B\J	.	8d\J	.	8dd\J	.	16gg\	.	.	.	.	.	.	.	.	.	.	.	.	.	.	.	.	.	.	8dd\J	.	.	.
.	.	.	.	.	.	.	.	16gg\JJ	.	.	.	.	.	.	.	.	.	.	.	.	.	.	.	.	.	.	.	.	.	.
*	*	*	*	*	*	*	*	*Xtremolo	*	*	*	*	*	*	*	*	*	*	*	*	*	*	*	*	*	*	*	*	*	*
!	!	!	!	!	!	!	!	!	!	!	!	!	!LO:LB:g=original	!	!	!	!	!	!	!	!	!	!	!	!	!	!	!	!	!
=9	=9	=9	=9	=9	=9	=9	=9	=9	=9	=9	=9	=9	=9	=9	=9	=9	=9	=9	=9	=9	=9	=9	=9	=9	=9	=9	=9	=9	=9	=9
*2\right	*	*2\right	*	*	*	*	*	*	*	*	*	*	*	*	*	*	*	*	*	*	*	*	*	*	*	*	*	*	*	*
*tremolo	*	*tremolo	*	*	*	*tremolo	*	*	*	*	*	*	*	*	*	*	*	*	*	*	*	*	*	*	*	*	*2\right	*	*	*
8c\L	.	8c\L	.	8c\L	.	16ee\LL	.	4gg\	.	2c\	tu-	.	2c\	tu-	.	2g\	tu-	2ee\	tu-	4Ra/	4c/	4cc\	4cc\	.	4ee\	.	2ee\	.	4gg\	.
.	.	.	.	.	.	16ee\	.	.	.	.	.	.	.	.	.	.	.	.	.	.	.	.	.	.	.	.	.	.	.	.
8c\	.	8c\	.	8c\	.	16ee\	.	.	.	.	.	.	.	.	.	.	.	.	.	.	.	.	.	.	.	.	.	.	.	.
.	.	.	.	.	.	16ee\JJ	.	.	.	.	.	.	.	.	.	.	.	.	.	.	.	.	.	.	.	.	.	.	.	.
8c\	.	8c\	.	8g\	.	16cc\LL	.	16ee\LL	.	.	.	.	.	.	.	.	.	.	.	4r	8c/L	8cc\L	8c/L	.	8cc\L	.	.	.	4gg\	.
.	.	.	.	.	.	16cc\	.	16dd\	.	.	.	.	.	.	.	.	.	.	.	.	.	.	.	.	.	.	.	.	.	.
8c\J	.	8c\J	.	8g\J	.	16cc\	.	16ee\	.	.	.	.	.	.	.	.	.	.	.	.	8c/J	8cc\J	8c/J	.	8cc\J	.	.	.	.	.
.	.	.	.	.	.	16cc\JJ	.	16ff\JJ	.	.	.	.	.	.	.	.	.	.	.	.	.	.	.	.	.	.	.	.	.	.
!	!	!	!	!	!	!	!	!	!	!	!	!	!	!	!	!	!	!	!	!	!	!	!LO:LB:g=original	!	!	!	!	!	!	!
=-	=-	=-	=-	=-	=-	=-	=-	=-	=-	=-	=-	=-	=-	=-	=-	=-	=-	=-	=-	=-	=-	=-	=-	=-	=-	=-	=-	=-	=-	=-
*	*	*	*	*2\right	*	*	*	*	*	*	*	*	*	*	*	*	*	*	*	*	*	*	*	*	*	*	*	*	*	*
*	*	*	*	*tremolo	*	*	*	*	*	*	*	*	*	*	*	*	*	*	*	*	*	*	*	*	*	*	*	*	*2\right	*
8B-X\L	4 2	8B-X\L	.	8g\L	.	16cc\LL	.	8gg\L	.	2B-X\	-a	.	2c\	-a	.	2g\	-a	2cc\	-a	2r	4c/	4cc\	4c/	.	4cc\	.	2cc\	.	2gg\	.
.	.	.	.	.	.	16cc\	.	.	.	.	.	.	.	.	.	.	.	.	.	.	.	.	.	.	.	.	.	.	.	.
8B-\	.	8B-\	.	8g\	.	16cc\	.	8ee\	.	.	.	.	.	.	.	.	.	.	.	.	.	.	.	.	.	.	.	.	.	.
.	.	.	.	.	.	16cc\	.	.	.	.	.	.	.	.	.	.	.	.	.	.	.	.	.	.	.	.	.	.	.	.
8B-\	.	8B-\	.	8g\	.	16cc\	.	8gg\	.	.	.	.	.	.	.	.	.	.	.	.	4c/	4cc\	4c/	.	4cc\	.	.	.	.	.
.	.	.	.	.	.	16cc\	.	.	.	.	.	.	.	.	.	.	.	.	.	.	.	.	.	.	.	.	.	.	.	.
8B-\J	.	8B-\J	.	8g\J	.	16cc\	.	8ee\J	.	.	.	.	.	.	.	.	.	.	.	.	.	.	.	.	.	.	.	.	.	.
.	.	.	.	.	.	16cc\JJ	.	.	.	.	.	.	.	.	.	.	.	.	.	.	.	.	.	.	.	.	.	.	.	.
!	!	!	!	!	!	!	!	!	!	!	!	!	!	!	!	!	!	!	!	!	!LO:LB:g=original	!LO:LB:g=original	!	!	!LO:PB:g=original	!	!	!	!	!
=10	=10	=10	=10	=10	=10	=10	=10	=10	=10	=10	=10	=10	=10	=10	=10	=10	=10	=10	=10	=10	=10	=10	=10	=10	=10	=10	=10	=10	=10	=10
8A\L	6	8A\L	.	8f\L	.	16cc\LL	.	4ff\	.	2A\	glo-	.	2c\	Ple-	.	2f\	glo-	2cc\	Ple-	00r	4c/	4cc\	4c/	.	4cc\	.	1cc	.	1ff	.
.	.	.	.	.	.	16cc\	.	.	.	.	.	.	.	.	.	.	.	.	.	.	.	.	.	.	.	.	.	.	.	.
8A\	.	8A\	.	8f\	.	16cc\	.	.	.	.	.	.	.	.	.	.	.	.	.	.	.	.	.	.	.	.	.	.	.	.
.	.	.	.	.	.	16cc\	.	.	.	.	.	.	.	.	.	.	.	.	.	.	.	.	.	.	.	.	.	.	.	.
8A\	.	8A\	.	8f\	.	16cc\	.	16ff\LL	.	.	.	.	.	.	.	.	.	.	.	.	8c/L	8cc\L	8c/L	.	8cc\L	.	.	.	.	.
.	.	.	.	.	.	16cc\	.	16ee\	.	.	.	.	.	.	.	.	.	.	.	.	.	.	.	.	.	.	.	.	.	.
8A\J	.	8A\J	.	8f\J	.	16cc\	.	16ff\	.	.	.	.	.	.	.	.	.	.	.	.	8c/J	8cc\J	8c/J	.	8cc\J	.	.	.	.	.
.	.	.	.	.	.	16cc\JJ	.	16gg\JJ	.	.	.	.	.	.	.	.	.	.	.	.	.	.	.	.	.	.	.	.	.	.
8F\L	.	8F\L	.	8f\L	.	16cc\LL	.	8aa\L	.	4F\	-ri-	.	4c\	-ni	.	4f\	-ri-	4cc\	-ni	.	4c/	4cc\	4c/	.	4cc\	.	.	.	.	.
.	.	.	.	.	.	16cc\	.	.	.	.	.	.	.	.	.	.	.	.	.	.	.	.	.	.	.	.	.	.	.	.
8F\	.	8F\	.	8f\	.	16cc\	.	8ff\	.	.	.	.	.	.	.	.	.	.	.	.	.	.	.	.	.	.	.	.	.	.
.	.	.	.	.	.	16cc\	.	.	.	.	.	.	.	.	.	.	.	.	.	.	.	.	.	.	.	.	.	.	.	.
8F\	.	8F\	.	8f\	.	16cc\	.	8aa\	.	4F\	-a	.	4c\	sunt	.	4f\	-a	4cc\	sunt	.	4c/	4cc\	4c/	.	4cc\	.	.	.	.	.
.	.	.	.	.	.	16cc\	.	.	.	.	.	.	.	.	.	.	.	.	.	.	.	.	.	.	.	.	.	.	.	.
8F\J	.	8F\J	.	8f\J	.	16cc\	.	8ff\J	.	.	.	.	.	.	.	.	.	.	.	.	.	.	.	.	.	.	.	.	.	.
.	.	.	.	.	.	16cc\JJ	.	.	.	.	.	.	.	.	.	.	.	.	.	.	.	.	.	.	.	.	.	.	.	.
=11	=11	=11	=11	=11	=11	=11	=11	=11	=11	=11	=11	=11	=11	=11	=11	=11	=11	=11	=11	=11	=11	=11	=11	=11	=11	=11	=11	=11	=11	=11
*	*	*	*	*	*	*	*	*	*	*	*ij	*	*	*	*	*	*ij	*	*	*	*	*	*	*	*	*	*	*	*	*
8E\L	6 5-	8E\L	.	8g\L	.	16cc\LL	.	4gg\	.	2E\	glo-	.	2B-X\	Cae-	.	2g\	glo-	2cc\	Cae-	.	4c/	4cc\	4c/	.	4cc\	.	2cc\	.	2gg\	.
.	.	.	.	.	.	16cc\	.	.	.	.	.	.	.	.	.	.	.	.	.	.	.	.	.	.	.	.	.	.	.	.
8E\	.	8E\	.	8g\	.	16cc\	.	.	.	.	.	.	.	.	.	.	.	.	.	.	.	.	.	.	.	.	.	.	.	.
.	.	.	.	.	.	16cc\	.	.	.	.	.	.	.	.	.	.	.	.	.	.	.	.	.	.	.	.	.	.	.	.
8E\	.	8E\	.	8g\	.	16cc\	.	16gg\LL	.	.	.	.	.	.	.	.	.	.	.	.	8c/L	8cc\L	8c/L	.	8cc\L	.	.	.	.	.
.	.	.	.	.	.	16cc\	.	16ff\	.	.	.	.	.	.	.	.	.	.	.	.	.	.	.	.	.	.	.	.	.	.
8E\J	.	8E\J	.	8g\J	.	16cc\	.	16gg\	.	.	.	.	.	.	.	.	.	.	.	.	8c/J	8cc\J	8c/J	.	8cc\J	.	.	.	.	.
.	.	.	.	.	.	16cc\JJ	.	16aa\JJ	.	.	.	.	.	.	.	.	.	.	.	.	.	.	.	.	.	.	.	.	.	.
8C/L	.	8C/L	.	8e\L	.	16cc\LL	.	8bb-X\L	.	4C/	-ri-	.	4B-\	-li	.	4g\	-ri-	4cc\	-li	.	4c/	4cc\	4c/	.	4cc\	.	2gg\	.	2bb-X\	.
.	.	.	.	.	.	16cc\	.	.	.	.	.	.	.	.	.	.	.	.	.	.	.	.	.	.	.	.	.	.	.	.
8C/	.	8C/	.	8e\	.	16cc\	.	8gg\	.	.	.	.	.	.	.	.	.	.	.	.	.	.	.	.	.	.	.	.	.	.
.	.	.	.	.	.	16cc\	.	.	.	.	.	.	.	.	.	.	.	.	.	.	.	.	.	.	.	.	.	.	.	.
8C/	.	8C/	.	8e\	.	16cc\	.	8ee\	.	4C/	-a	.	4B-\	et	.	4g\	-a	4cc\	et	.	4c/	4cc\	4c/	.	4cc\	.	.	.	.	.
*	*	*	*	*	*	*	*	*	*	*	*Xij	*	*	*	*	*	*Xij	*	*	*	*	*	*	*	*	*	*	*	*	*
.	.	.	.	.	.	16cc\	.	.	.	.	.	.	.	.	.	.	.	.	.	.	.	.	.	.	.	.	.	.	.	.
8C/J	.	8C/J	.	8e\J	.	16cc\	.	8b-X\J	.	.	.	.	.	.	.	.	.	.	.	.	.	.	.	.	.	.	.	.	.	.
.	.	.	.	.	.	16cc\JJ	.	.	.	.	.	.	.	.	.	.	.	.	.	.	.	.	.	.	.	.	.	.	.	.
*	*	*	*	*	*	*Xtremolo	*	*	*	*	*	*	*	*	*	*	*	*	*	*	*	*	*	*	*	*	*	*	*	*
!	!	!	!	!	!	!	!	!	!	!	!	!	!	!	!	!	!	!	!	!	!	!	!	!	!	!	!	!	!LO:LB:g=original	!
=12	=12	=12	=12	=12	=12	=12	=12	=12	=12	=12	=12	=12	=12	=12	=12	=12	=12	=12	=12	=12	=12	=12	=12	=12	=12	=12	=12	=12	=12	=12
8F\L	.	8F\L	.	8f\L	.	8cc\	.	8a/	.	2F\	tu-	.	2A\	ter-	.	2a\	tu-	2cc\	ter-	.	4c/	4cc\	4c/	.	4cc\	.	2ff\	.	1aa	.
8F\	.	8F\	.	8f\	.	4cc\	.	4aa\	.	.	.	.	.	.	.	.	.	.	.	.	.	.	.	.	.	.	.	.	.	.
8F\	.	8F\	.	8f\	.	.	.	.	.	.	.	.	.	.	.	.	.	.	.	.	4cc\	4cc\	4c/	.	4cc\	.	.	.	.	.
8F\J	.	8F\J	.	8f\J	.	4cc\	.	4aa\	.	.	.	.	.	.	.	.	.	.	.	.	.	.	.	.	.	.	.	.	.	.
8F\L	.	8F\L	.	8f\L	.	.	.	.	.	2F\	-a	.	2A\	-ra	.	2a\	-a	2cc\	-ra	.	4cc\	4cc\	4c/	.	4cc\	.	2cc\	.	.	.
8F\	.	8F\	.	8f\	.	4cc\	.	4aa\	.	.	.	.	.	.	.	.	.	.	.	.	.	.	.	.	.	.	.	.	.	.
8F\	.	8F\	.	8f\	.	.	.	.	.	.	.	.	.	.	.	.	.	.	.	.	4cc\	4cc\	4c/	.	4cc\	.	.	.	.	.
8F\J	.	8F\J	.	8f\J	.	8cc\	.	8aa\	.	.	.	.	.	.	.	.	.	.	.	.	.	.	.	.	.	.	.	.	.	.
=13	=13	=13	=13	=13	=13	=13	=13	=13	=13	=13	=13	=13	=13	=13	=13	=13	=13	=13	=13	=13	=13	=13	=13	=13	=13	=13	=13	=13	=13	=13
8F\L	4 2	8F\L	.	8g\L	.	8dd\	.	8bbn\	.	2F\	glo-	.	2Bn\	Glo-	.	2g\	glo-	2dd\	glo-	.	1g	1dd	4g/	.	4dd\	.	1dd	.	1bbn	.
8F\	.	8F\	.	8g\	.	4dd\	.	4bb\	.	.	.	.	.	.	.	.	.	.	.	.	.	.	.	.	.	.	.	.	.	.
8F\	.	8F\	.	8g\	.	.	.	.	.	.	.	.	.	.	.	.	.	.	.	.	.	.	8g/L	.	8dd\L	.	.	.	.	.
8F\J	.	8F\J	.	8g\J	.	4dd\	.	4bb\	.	.	.	.	.	.	.	.	.	.	.	.	.	.	8g/J	.	8dd\J	.	.	.	.	.
8F\L	.	8F\L	.	8g\L	.	.	.	.	.	4F\	-ri-	.	4B\	-ri-	.	4g\	-ri-	4dd\	-ri-	.	.	.	4g/	.	4dd\	.	.	.	.	.
8F\	.	8F\	.	8g\	.	4dd\	.	4bb\	.	.	.	.	.	.	.	.	.	.	.	.	.	.	.	.	.	.	.	.	.	.
8F\	.	8F\	.	8g\	.	.	.	.	.	4F\	-a	.	4B\	-a	.	4g\	-a	4dd\	-a	.	.	.	4g/	.	4dd\	.	.	.	.	.
8F\J	.	8F\J	.	8g\J	.	8dd\	.	8bb\	.	.	.	.	.	.	.	.	.	.	.	.	.	.	.	.	.	.	.	.	.	.
!	!	!	!	!	!	!	!	!	!	!	!	!	!	!	!	!	!	!LO:LB:g=original	!	!	!	!	!	!	!	!	!	!	!	!
=14	=14	=14	=14	=14	=14	=14	=14	=14	=14	=14	=14	=14	=14	=14	=14	=14	=14	=14	=14	=14	=14	=14	=14	=14	=14	=14	=14	=14	=14	=14
*	*	*	*	*	*	*	*	*	*	*	*ij	*	*	*ij	*	*	*ij	*	*ij	*	*	*	*	*	*	*	*	*	*	*
8E\L	6	8E\L	.	8g\L	.	8cc\	.	8ccc\	.	2E\	glo-	.	2c\	Glo-	.	2g\	glo-	2ee\	glo-	1r	4cc\	4ee\	4cc\	.	4ee\	.	2cc\	.	2ccc\	.
8E\	.	8E\	.	8g\	.	4cc\	.	4ccc\	.	.	.	.	.	.	.	.	.	.	.	.	.	.	.	.	.	.	.	.	.	.
8E\	.	8E\	.	8g\	.	.	.	.	.	.	.	.	.	.	.	.	.	.	.	.	4r	4r	4cc\	.	4ee\	.	.	.	.	.
8E\J	.	8E\J	.	8g\J	.	8cc\	.	4ccc\	.	.	.	.	.	.	.	.	.	.	.	.	.	.	.	.	.	.	.	.	.	.
!	!	!	!	!LO:LB:g=original	!	!LO:LB:g=original	!	!	!	!	!	!	!	!	!	!	!	!	!	!	!	!	!	!	!	!	!	!	!	!
=-	=-	=-	=-	=-	=-	=-	=-	=-	=-	=-	=-	=-	=-	=-	=-	=-	=-	=-	=-	=-	=-	=-	=-	=-	=-	=-	=-	=-	=-	=-
8A\L	6\	8A\L	.	8f#X\L	.	8dd\	.	.	.	4A\	-ri-	.	4c\	-ri-	.	4f#X\	-ri-	4dd\	-ri-	.	4dd\	4dd\	4dd\	.	4dd\	.	2dd\	.	2ccc\	.
8A\	.	8A\	.	8f#\	.	4dd\	.	4ccc\	.	.	.	.	.	.	.	.	.	.	.	.	.	.	.	.	.	.	.	.	.	.
8A\	.	8A\	.	8f#\	.	.	.	.	.	4A\	-a	.	4c\	-a	.	4f#\	-a	4dd\	-a	.	4r	4r	4dd\	.	4dd\	.	.	.	.	.
*	*	*	*	*	*	*	*	*	*	*	*Xij	*	*	*Xij	*	*	*Xij	*	*Xij	*	*	*	*	*	*	*	*	*	*	*
8A\J	.	8A\J	.	8f#\J	.	8dd\	.	8ccc\	.	.	.	.	.	.	.	.	.	.	.	.	.	.	.	.	.	.	.	.	.	.
!	!	!	!	!	!	!	!	!LO:LB:g=original	!	!	!	!	!	!	!	!	!	!	!	!	!	!	!	!	!	!	!	!	!	!
=15	=15	=15	=15	=15	=15	=15	=15	=15	=15	=15	=15	=15	=15	=15	=15	=15	=15	=15	=15	=15	=15	=15	=15	=15	=15	=15	=15	=15	=15	=15
*	*	*	*	*	*	*tremolo	*	*tremolo	*	*	*	*	*	*	*	*	*	*	*	*	*	*2\right	*2\right	*	*2\right	*	*	*	*	*
8G\L	4	8G\L	.	8g\L	.	16ee\LL	.	16ccc\LL	.	1G	tu-	.	(2c\	tu-	.	(2g\	tu-	(2ee\	tu-	4Re/	2e/	2cc\	2cc\	.	2ee\	.	2ee\	.	2ccc\	.
.	.	.	.	.	.	16ee\	.	16ccc\	.	.	.	.	.	.	.	.	.	.	.	.	.	.	.	.	.	.	.	.	.	.
8G\	.	8G\	.	8g\	.	16ee\	.	16ccc\	.	.	.	.	.	.	.	.	.	.	.	.	.	.	.	.	.	.	.	.	.	.
.	.	.	.	.	.	16ee\	.	16ccc\	.	.	.	.	.	.	.	.	.	.	.	.	.	.	.	.	.	.	.	.	.	.
8G\	.	8G\	.	8g\	.	16ee\	.	16ccc\	.	.	.	.	.	.	.	.	.	.	.	8Re/L	.	.	.	.	.	.	.	.	.	.
.	.	.	.	.	.	16ee\	.	16ccc\	.	.	.	.	.	.	.	.	.	.	.	.	.	.	.	.	.	.	.	.	.	.
8G\J	.	8G\J	.	8g\J	.	16ee\	.	16ccc\	.	.	.	.	.	.	.	.	.	.	.	8Re/J	.	.	.	.	.	.	.	.	.	.
.	.	.	.	.	.	16ee\JJ	.	16ccc\JJ	.	.	.	.	.	.	.	.	.	.	.	.	.	.	.	.	.	.	.	.	.	.
8GG/L	3	8GG/L	.	8G/L	.	16dd\LL	.	16bb\LL	.	.	.	.	2B\)	.	.	2fn\)	.	2dd\)	.	4Re/	2g/	2dd\	2g/	.	2dd\	.	2dd\	.	2ccc\	.
.	.	.	.	.	.	16dd\	.	16bb\	.	.	.	.	.	.	.	.	.	.	.	.	.	.	.	.	.	.	.	.	.	.
8GG/	.	8GG/	.	8G/	.	16dd\	.	16bb\	.	.	.	.	.	.	.	.	.	.	.	.	.	.	.	.	.	.	.	.	.	.
.	.	.	.	.	.	16dd\	.	16bb\	.	.	.	.	.	.	.	.	.	.	.	.	.	.	.	.	.	.	.	.	.	.
8GG/	.	8GG/	.	8G/	.	16dd\	.	16bb\	.	.	.	.	.	.	.	.	.	.	.	4Re/	.	.	.	.	.	.	.	.	.	.
.	.	.	.	.	.	16dd\	.	16bb\	.	.	.	.	.	.	.	.	.	.	.	.	.	.	.	.	.	.	.	.	.	.
8GG/J	.	8GG/J	.	8G/J	.	16dd\	.	16bb\	.	.	.	.	.	.	.	.	.	.	.	.	.	.	.	.	.	.	.	.	.	.
.	.	.	.	.	.	16dd\JJ	.	16bb\JJ	.	.	.	.	.	.	.	.	.	.	.	.	.	.	.	.	.	.	.	.	.	.
*Xtremolo	*	*Xtremolo	*	*Xtremolo	*	*	*	*Xtremolo	*	*	*	*	*	*	*	*	*	*	*	*	*	*	*	*	*	*	*	*	*	*
!	!	!	!	!	!	!	!	!	!	!	!	!	!	!	!	!LO:LB:g=original	!	!	!	!	!	!	!	!	!	!	!	!	!	!
=16	=16	=16	=16	=16	=16	=16	=16	=16	=16	=16	=16	=16	=16	=16	=16	=16	=16	=16	=16	=16	=16	=16	=16	=16	=16	=16	=16	=16	=16	=16
4C/	.	4C/	.	4c\	.	16cc\LL	.	8ccc\L	.	4C/	-a	.	4c\	-a	.	4e\	-a	4cc\	-a	4Ra/	4e/	4cc\	4e/	.	4ee\	.	4ee\	.	4ccc\	.
.	.	.	.	.	.	16cc\	.	.	.	.	.	.	.	.	.	.	.	.	.	.	.	.	.	.	.	.	.	.	.	.
.	.	.	.	.	.	16cc\	.	8cc\	.	.	.	.	.	.	.	.	.	.	.	.	.	.	.	.	.	.	.	.	.	.
.	.	.	.	.	.	16cc\	.	.	.	.	.	.	.	.	.	.	.	.	.	.	.	.	.	.	.	.	.	.	.	.
4C/	.	4C/	.	4c\	.	16cc\	.	8cc\	.	4C/	O-	.	4c\	O-	.	4e\	O-	4cc\	O-	8Ra/L	8c/L	8cc\L	4r	.	4r	.	4r	.	4r	.
.	.	.	.	.	.	16cc\	.	.	.	.	.	.	.	.	.	.	.	.	.	.	.	.	.	.	.	.	.	.	.	.
.	.	.	.	.	.	16cc\	.	8cc\J	.	.	.	.	.	.	.	.	.	.	.	8Ra/J	8c/J	8cc\J	.	.	.	.	.	.	.	.
.	.	.	.	.	.	16cc\JJ	.	.	.	.	.	.	.	.	.	.	.	.	.	.	.	.	.	.	.	.	.	.	.	.
4E\	6 5-	4E\	.	4g\	.	16cc\LL	.	8bb-X\L	.	(4E\	-san-	.	2c\	-san-	.	2g\	-san-	2b-X\	-san-	4Ra/	4c/	4cc\	4c/	.	4cc\	.	2gg\	.	2bb-X\	.
.	.	.	.	.	.	16cc\	.	.	.	.	.	.	.	.	.	.	.	.	.	.	.	.	.	.	.	.	.	.	.	.
.	.	.	.	.	.	16cc\	.	8cc\	.	.	.	.	.	.	.	.	.	.	.	.	.	.	.	.	.	.	.	.	.	.
.	.	.	.	.	.	16cc\	.	.	.	.	.	.	.	.	.	.	.	.	.	.	.	.	.	.	.	.	.	.	.	.
4C/	.	4C/	.	4e\	.	16cc\	.	8cc\	.	4C\)	.	.	.	.	.	.	.	.	.	4Ra/	4c/	4cc\	4c/	.	4cc\	.	.	.	.	.
.	.	.	.	.	.	16cc\	.	.	.	.	.	.	.	.	.	.	.	.	.	.	.	.	.	.	.	.	.	.	.	.
.	.	.	.	.	.	16cc\	.	8cc\J	.	.	.	.	.	.	.	.	.	.	.	.	.	.	.	.	.	.	.	.	.	.
.	.	.	.	.	.	16cc\JJ	.	.	.	.	.	.	.	.	.	.	.	.	.	.	.	.	.	.	.	.	.	.	.	.
*	*	*	*	*	*	*Xtremolo	*	*	*	*	*	*	*	*	*	*	*	*	*	*	*	*	*	*	*	*	*	*	*	*
!	!	!	!	!	!	!	!	!	!	!LO:LB:g=original	!	!	!	!	!	!	!	!	!	!	!	!	!	!	!	!	!	!	!	!
=17	=17	=17	=17	=17	=17	=17	=17	=17	=17	=17	=17	=17	=17	=17	=17	=17	=17	=17	=17	=17	=17	=17	=17	=17	=17	=17	=17	=17	=17	=17
*	*	*	*	*	*	*Xtuplet	*	*Xtuplet	*	*	*	*	*	*	*	*	*	*	*	*	*	*	*	*	*	*	*	*	*	*
4F\	.	4F\	.	4f\	.	12cc\L	.	12aa\L	.	2F\	-na	.	2c\	-na	.	2e\	-na	2a\	-na	4Ra/	2c/	2cc\	2c/	.	2cc\	.	2ff\	.	2aa\	.
*	*	*	*	*	*	*	*	*	*	*	*	*	*custos:c	*	*	*	*	*	*	*	*	*	*	*	*	*	*	*	*	*
.	.	.	.	.	.	12cc\	.	12cc\	.	.	.	.	.	.	.	.	.	.	.	.	.	.	.	.	.	.	.	.	.	.
.	.	.	.	.	.	12cc\J	.	12cc\J	.	.	.	.	.	.	.	.	.	.	.	.	.	.	.	.	.	.	.	.	.	.
4C\	.	4C/	.	4c\	.	12cc\L	.	12cc\L	.	.	.	.	.	.	.	.	.	.	.	8Ra/L	.	.	.	.	.	.	.	.	.	.
.	.	.	.	.	.	12cc\	.	12cc\	.	.	.	.	.	.	.	.	.	.	.	.	.	.	.	.	.	.	.	.	.	.
.	.	.	.	.	.	.	.	.	.	.	.	.	.	.	.	.	.	.	.	8Ra/J	.	.	.	.	.	.	.	.	.	.
.	.	.	.	.	.	12cc\J	.	12cc\J	.	.	.	.	.	.	.	.	.	.	.	.	.	.	.	.	.	.	.	.	.	.
!	!	!	!	!	!	!	!	!	!	!	!	!	!LO:PB:g=original	!	!	!	!	!	!	!	!	!	!	!	!	!	!	!	!	!
=-	=-	=-	=-	=-	=-	=-	=-	=-	=-	=-	=-	=-	=-	=-	=-	=-	=-	=-	=-	=-	=-	=-	=-	=-	=-	=-	=-	=-	=-	=-
4E\	6 5-	4E\	.	4g\	.	12cc\L	.	12bb-X\L	.	4E\	in	.	4c\	in	.	4g\	in	4b-X\	in	4Ra/	4c/	4cc\	4c/	.	4cc\	.	2gg\	.	2bb-X\	.
.	.	.	.	.	.	12cc\	.	12cc\	.	.	.	.	.	.	.	.	.	.	.	.	.	.	.	.	.	.	.	.	.	.
.	.	.	.	.	.	12cc\J	.	12cc\J	.	.	.	.	.	.	.	.	.	.	.	.	.	.	.	.	.	.	.	.	.	.
4C/	.	4C/	.	4e\	.	12cc\L	.	12cc\L	.	4C\	ex-	.	4c\	ex-	.	4g\	ex-	4b-\	ex-	4Ra/	4c/	4cc\	4c/	.	4cc\	.	.	.	.	.
.	.	.	.	.	.	12cc\	.	12cc\	.	.	.	.	.	.	.	.	.	.	.	.	.	.	.	.	.	.	.	.	.	.
.	.	.	.	.	.	12cc\J	.	12cc\J	.	.	.	.	.	.	.	.	.	.	.	.	.	.	.	.	.	.	.	.	.	.
!LO:LB:g=original	!	!LO:LB:g=original	!	!	!	!	!	!	!	!	!	!	!	!	!	!	!	!	!	!	!	!	!	!	!	!	!	!	!	!
=18	=18	=18	=18	=18	=18	=18	=18	=18	=18	=18	=18	=18	=18	=18	=18	=18	=18	=18	=18	=18	=18	=18	=18	=18	=18	=18	=18	=18	=18	=18
4F\	.	4F\	.	4f\	.	12cc\L	.	12aa\L	.	(4F\	-cel-	.	1c	-cel-	.	(4f\	-cel-	4a\	-cel-	4Ra/	4c/	4cc\	4c/	.	4cc\	.	4ff\	.	4aa\	.
.	.	.	.	.	.	12cc\	.	12cc\	.	.	.	.	.	.	.	.	.	.	.	.	.	.	.	.	.	.	.	.	.	.
.	.	.	.	.	.	12cc\J	.	12cc\J	.	.	.	.	.	.	.	.	.	.	.	.	.	.	.	.	.	.	.	.	.	.
4E\	6 5-	4E\	.	4g\	.	12cc\L	.	12cc\L	.	4E\	.	.	.	.	.	4g\	.	4b-X\	.	4Ra/	4c/	4cc\	4c/	.	4cc\	.	4gg\	.	4bb-X\	.
.	.	.	.	.	.	12cc\	.	12cc\	.	.	.	.	.	.	.	.	.	.	.	.	.	.	.	.	.	.	.	.	.	.
.	.	.	.	.	.	12cc\J	.	12cc\J	.	.	.	.	.	.	.	.	.	.	.	.	.	.	.	.	.	.	.	.	.	.
4F\	.	4F\	.	4f\	.	12cc\L	.	12bb-X\L	.	4F\	.	.	.	.	.	4f\	.	4a\	.	4Ra/	4c/	4cc\	4c/	.	4cc\	.	4ff\	.	4aa\	.
.	.	.	.	.	.	12cc\	.	12cc\	.	.	.	.	.	.	.	.	.	.	.	.	.	.	.	.	.	.	.	.	.	.
.	.	.	.	.	.	12cc\J	.	12cc\J	.	.	.	.	.	.	.	.	.	.	.	.	.	.	.	.	.	.	.	.	.	.
4E\	6 5-	4E\	.	4g\	.	12cc\L	.	12cc\L	.	4E\)	.	.	.	.	.	4g\)	.	4b-\	.	4Ra/	4c/	4cc\	4c/	.	4cc\	.	4gg\	.	4bb-\	.
.	.	.	.	.	.	12cc\	.	12cc\	.	.	.	.	.	.	.	.	.	.	.	.	.	.	.	.	.	.	.	.	.	.
.	.	.	.	.	.	12cc\J	.	12cc\J	.	.	.	.	.	.	.	.	.	.	.	.	.	.	.	.	.	.	.	.	.	.
=19	=19	=19	=19	=19	=19	=19	=19	=19	=19	=19	=19	=19	=19	=19	=19	=19	=19	=19	=19	=19	=19	=19	=19	=19	=19	=19	=19	=19	=19	=19
1F	.	1F	.	1f	.	1cc	.	1aa	.	1F	.	.	1c	.	.	1f	.	1a	.	4Ra/	1c	1cc	1c	.	1cc	.	1ff	.	1aa	.
.	.	.	.	.	.	.	.	.	.	.	.	.	.	.	.	.	.	.	.	4r	.	.	.	.	.	.	.	.	.	.
.	.	.	.	.	.	.	.	.	.	.	.	.	.	.	.	.	.	.	.	2r	.	.	.	.	.	.	.	.	.	.
=20	=20	=20	=20	=20	=20	=20	=20	=20	=20	=20	=20	=20	=20	=20	=20	=20	=20	=20	=20	=20	=20	=20	=20	=20	=20	=20	=20	=20	=20	=20
!LO:TX:a:t=20	!	!	!	!LO:TX:b:t=Seque Benedictus	!	!	!	!	!	!	!	!	!	!	!	!	!	!LO:TX:b:t=Seque Benedictus	!	!	!	!	!	!	!	!	!	!	!	!
1C;	.	1C	.	1e;	.	1ee;	.	1gg;	.	1C	-sis	.	1c;	-sis	.	1e	-ſis.	1g;	-sis	4Ra/	1e;	1cc;	1cc;	.	1ee;	.	1ee;	.	1gg;	.
.	.	.	.	.	.	.	.	.	.	.	.	.	.	.	.	.	.	.	.	4r	.	.	.	.	.	.	.	.	.	.
.	.	.	.	.	.	.	.	.	.	.	.	.	.	.	.	.	.	.	.	2r	.	.	.	.	.	.	.	.	.	.
!LO:LB:g=original	!	!LO:LB:g=original	!	!LO:PB:g=original	!	!LO:LB:g=original	!	!LO:LB:g=original	!	!LO:LB:g=original	!	!	!LO:LB:g=original	!	!	!LO:LB:g=original	!	!LO:PB:g=original	!	!LO:LB:g=original	!LO:LB:g=original	!LO:LB:g=original	!LO:PB:g=original	!	!LO:LB:g=original	!	!LO:LB:g=original	!	!LO:LB:g=original	!
==	==	==	==	==	==	==	==	==	==	==	==	==	==	==	==	==	==	==	==	==	==	==	==	==	==	==	==	==	==	==
*-	*-	*-	*-	*-	*-	*-	*-	*-	*-	*-	*-	*-	*-	*-	*-	*-	*-	*-	*-	*-	*-	*-	*-	*-	*-	*-	*-	*-	*-	*-
!!!system-decoration: [(s1,s2)][(s3,s4,s5,s6)](s7)[(s8,s9,s10,s11)][(s12,s13,s14,s15)]s16
!!!RDF**dynam: ff = "ffor:"
!!!ENC: Berenika Jozajtis
!!!END: 2023-12-11
!!!EED: Marta Chmielewska
!!!EEV: 2024-04-27
